theme/colored/wizard-groupware.svg

<svg xmlns="http://www.w3.org/2000/svg" viewbox="0 0 16 16" height="16" width="16" version="1.1"><path fill="#0082c9" d="m9 1c-1.746 0-3 1.43-3 2.8 0 1.4 0.1 2.4 0.8 3.5 0.224 0.29 0.485 0.35 0.7 0.6 0.135 0.5 0.24 1 0.1 1.5-0.436 0.153-0.85 0.332-1.27 0.5-0.51-0.273-1.1-0.5-1.61-0.7-0.07-0.28-0.02-0.487 0.05-0.75 0.12-0.125 0.23-0.18 0.36-0.3 0.37-0.45 0.39-1.21 0.39-1.75 0-0.8-0.72-1.4-1.5-1.4-0.87 0-1.5 0.72-1.5 1.4h-0.02c0 0.7 0.05 1.2 0.4 1.75 0.1 0.15 0.242 0.175 0.35 0.3 0.0674 0.25 0.121 0.5 0.05 0.75-0.64 0.223-1.244 0.5-1.8 0.8-0.42 0.3-0.233 0.182-0.5 1.15-0.124 0.5 1.3 0.73 2.32 0.81-0.05 0.275-0.12 0.64-0.32 1.34-0.32 1.25 4.353 1.7 6 1.7 2.43 0 6.313-0.456 5.98-1.7-0.52-1.94-0.208-1.71-0.98-2.3-1.09-0.654-2.452-1.167-3.6-1.6-0.15-0.557-0.04-0.97 0.1-1.5 0.235-0.25 0.5-0.36 0.72-0.6 0.69-0.884 0.78-2.424 0.78-3.5 0-1.586-1.43-2.8-3-2.8z"/></svg>

<?xml version="1.0" encoding="utf-8"?>
<!-- Generator: Adobe Illustrator 25.1.0, SVG Export Plug-In . SVG Version: 6.00 Build 0)  -->
<svg version="1.1" id="Layer_1" xmlns="http://www.w3.org/2000/svg" xmlns:xlink="http://www.w3.org/1999/xlink" x="0px" y="0px"
	 viewBox="0 0 16 16" style="enable-background:new 0 0 16 16;" xml:space="preserve">
<style type="text/css">
	.st0{fill:#C9570A;}
</style>
<path class="st0" d="M9,1C7.3,1,6,2.4,6,3.8c0,1.4,0.1,2.4,0.8,3.5C7,7.6,7.3,7.7,7.5,7.9c0.1,0.5,0.2,1,0.1,1.5
	C7.2,9.6,6.8,9.7,6.3,9.9C5.8,9.6,5.2,9.4,4.7,9.2c-0.1-0.3,0-0.5,0.1-0.8C4.9,8.3,5,8.3,5.1,8.1c0.4-0.4,0.4-1.2,0.4-1.8
	C5.5,5.6,4.8,5,4,5C3.2,5,2.5,5.7,2.5,6.4h0c0,0.7,0,1.2,0.4,1.8C3,8.3,3.1,8.3,3.2,8.4c0.1,0.2,0.1,0.5,0,0.8
	C2.7,9.4,2.1,9.7,1.5,10c-0.4,0.3-0.2,0.2-0.5,1.1c-0.1,0.5,1.3,0.7,2.3,0.8c0,0.3-0.1,0.6-0.3,1.3C2.7,14.6,7.4,15,9,15
	c2.4,0,6.3-0.5,6-1.7c-0.5-1.9-0.2-1.7-1-2.3c-1.1-0.7-2.5-1.2-3.6-1.6c-0.1-0.6,0-1,0.1-1.5c0.2-0.2,0.5-0.4,0.7-0.6
	C11.9,6.4,12,4.9,12,3.8C12,2.2,10.6,1,9,1z"/>
</svg>
